X:1
T:The Smuggler's -- Reel
R:reel
B:Ryan's Mammoth Collection
N:
Z: Contributed by Ray Davies,  ray:davies99.freeserve.co.uk
M:2/4
L:1/16
K:A
uA2|\
EFAB .c2(ec) | BABc BAFA | EFAB .c2(fe) | edBG AAAF |
EFAB .c2(ec) | BABc BAFA | EFAB .c2.f2 | edBc A2:|
|:vceef ecAc | BABc BAFA | ceef ecAc | BABc A2 z2 |
  vceef ecAc | BABc BAFA | \
EFAB .c2.f2 |1 edBc A2z2 :|2 edBc A2|]
